X: 15454
T: Glen Road To Carrick, The
R: reel
M: 4/4
K: Dmixolydian
AD~D2 AGFE|AD~D2 BGBd|AD~D2 AGFA|1 GEcE GABd:|2 GEcE GcGE||
D2dA F2AF|Dd^cd ABAF|D2dA F2AF|GEcE GcGE|
D2dA F2AF|Dd^cd A2B=c|cBBA AGAF|GEcE GBeg|
|:fd~d2 Addg|fdfg a2(3gag|fd~d2 Adfd|ecef gaag:|
|:fde^c dBAG|FADF A2Bc|cBBA AGAF|1 GEcE GBeg|2 GEcE GAB^c:|
|:dD~D2 AD~D2|dD~D2 A2Bc|dD~D2 AGFA|GEcE GAB^c|
dD~D2 AD~D2|dD~D2 A2Bc|cBBA AGAF|1 GEcE GAB^c:|2 GEcE GcGE||D4||

